X:078
U: ~ = !turn!
%%topmargin 3cm
T:Galway Reel
B:Traditional Irish Fiddle Tunes. Randy Miller and Jack Perron.
Z:Transcribed by Ralph Palmer
R:Reel
M:C|
L:1/8
K:G
Jg2 fg edBA | PG2 BG AE ~E2 | GABd ea{/b}ag | fdef Jgbaf |
Jg2 fg edBA | GABG AE ~E2 | GABd ea{/b}ag | fdef Jg2 ef ::
Jgbef Jgbag | fd ~d2 dfaf | Jgbef gabg | Pafdf e2 ef |
Jgb (3.b.b.b bfge | fa (3.a.a.a {/b}afdf | g2 bg fa{/b}af | edef gbaf :|]
